X: 142
T: Yark 'er Up
C: Bert Murray
R: reel
B: Bert Murray's "Bon Accord Collection" 1999 p.14
N: "Yark 'er up" is N-E Scots for "Keep her going"
Z: 2011 John Chambers <jc:trillian.mit.edu>
M: 4/4
L: 1/8
K: F
uC2 |\
F2 (F/E/D) CA,A,C | DB,B,D CA,A,C | FAce  fcAF  | DGGF ECDE |
F2 (FD)    CA,A,C | DB,B,D CA,A,C | dFB,D CFA,F | EGcE F2 ||
uc2 |\
f2(fe) fcAc | dBBd cAAc | BDFB  ACFA  | Gc=Bd c^cde |
f2(fe) fcAc | dBBd cAAF | DFB,D CFA,F | EGcE F2 |]

%%sep 2 1 500

